svgs/sharp-solid/head-side-mask.svg

<svg xmlns="http://www.w3.org/2000/svg" viewBox="0 0 576 512"><!--! Font Awesome Pro 6.6.0 by @fontawesome - https://fontawesome.com License - https://fontawesome.com/license (Commercial License) Copyright 2024 Fonticons, Inc. --><path d="M32 224.3c0-22.7 3.4-44.7 9.7-65.3L256 301.9 256 512l-128 0-32 0 0-32 0-98.8C55 339.3 32 283 32 224.3zM268.8 272L53.5 128.4C89.4 52.5 166.8 0 256.3 0L288 0C390.1 0 473.6 79.7 479.7 180.3L537 252l7 8.8 0 11.2-272 0-3.2 0zM304 304l240 0s0 0 0 0l-19.7 64L368 368l-16 0 0 32 16 0 146.5 0-9.8 32L368 432l-16 0 0 32 16 0 126.8 0L480 512l-192 0 0-208 16 0s0 0 0 0zm80-80a32 32 0 1 0 0-64 32 32 0 1 0 0 64z"/></svg>

<svg xmlns="http://www.w3.org/2000/svg" viewBox="0 0 576 512"><!--! Font Awesome Pro 6.4.2 by @fontawesome - https://fontawesome.com License - https://fontawesome.com/license (Commercial License) Copyright 2023 Fonticons, Inc. --><path d="M32 224.3c0-22.7 3.4-44.7 9.7-65.3L256 301.9V512H128 96V480 381.2C55 339.3 32 283 32 224.3zM268.8 272L53.5 128.4C89.4 52.5 166.8 0 256.3 0H288C390.1 0 473.6 79.7 479.7 180.3L537 252l7 8.8V272l-272 0h-3.2zM304 304H544v0l-19.7 64H368 352v32h16H514.5l-9.8 32H368 352v32h16H494.8L480 512H288V304h16s0 0 0 0zm80-80a32 32 0 1 0 0-64 32 32 0 1 0 0 64z"/></svg>
